public/logos/react.svg

<svg width="256" height="256" viewBox="0 0 256 256" fill="none" xmlns="http://www.w3.org/2000/svg">
<path d="M127.5 144.988C137.197 144.988 145.059 137.158 145.059 127.5C145.059 117.842 137.197 110.012 127.5 110.012C117.803 110.012 109.941 117.842 109.941 127.5C109.941 137.158 117.803 144.988 127.5 144.988Z" fill="#61DAFB"/>
<path fill-rule="evenodd" clip-rule="evenodd" d="M109.585 96.5948C106.317 101.369 103.125 106.422 100.055 111.718C96.9845 117.014 94.1871 122.294 91.6696 127.5C94.1871 132.706 96.9845 137.986 100.055 143.282C103.125 148.578 106.317 153.631 109.585 158.405C115.37 158.837 121.36 159.064 127.5 159.064C133.64 159.064 139.63 158.837 145.415 158.405C148.683 153.631 151.875 148.578 154.945 143.282C158.016 137.986 160.813 132.706 163.33 127.5C160.813 122.294 158.016 117.014 154.945 111.718C151.875 106.422 148.683 101.369 145.415 96.5948C139.63 96.1634 133.64 95.9362 127.5 95.9362C121.36 95.9362 115.37 96.1634 109.585 96.5948ZM98.598 97.6863C96.5666 100.849 94.576 104.107 92.6368 107.453C90.6976 110.798 88.8595 114.144 87.1252 117.478C84.6887 111.719 82.6174 106.103 80.9216 100.716C86.4537 99.4853 92.3721 98.4642 98.598 97.6863ZM116.027 87.664C119.793 87.4932 123.622 87.4055 127.5 87.4055C131.378 87.4055 135.207 87.4932 138.973 87.664C135.183 82.6829 131.336 78.0886 127.5 73.9324C123.664 78.0886 119.817 82.6829 116.027 87.664ZM121.524 67.8024C115.884 73.8785 110.267 80.8057 104.851 88.429C95.5146 89.2888 86.6826 90.6703 78.5793 92.497C77.656 88.8606 76.9244 85.3611 76.3884 82.0288C74.9932 73.3556 74.9604 66.0456 76.1545 60.4853C77.3488 54.9244 79.6462 51.5874 82.5326 49.9276C85.4191 48.2679 89.4693 47.9548 94.9018 49.7052C100.334 51.4553 106.674 55.1386 113.517 60.6786C116.147 62.8071 118.824 65.1878 121.524 67.8024ZM133.476 67.8024C139.116 73.8785 144.733 80.8057 150.149 88.429C159.485 89.2888 168.317 90.6703 176.421 92.497C177.344 88.8606 178.076 85.3611 178.612 82.0288C180.007 73.3556 180.04 66.0456 178.845 60.4853C177.651 54.9244 175.354 51.5874 172.467 49.9276C169.581 48.2679 165.531 47.9548 160.098 49.7052C154.666 51.4553 148.326 55.1386 141.483 60.6786C138.853 62.8071 136.176 65.1878 133.476 67.8024ZM184.723 94.5954C185.707 90.7188 186.491 86.9695 187.069 83.3783C188.561 74.1033 188.714 65.6519 187.221 58.701C185.729 51.7508 182.467 45.827 176.75 42.5398C171.033 39.2526 164.251 39.4009 157.462 41.5886C150.671 43.7765 143.399 48.1341 136.08 54.0585C133.247 56.3524 130.379 58.9034 127.5 61.6908C124.621 58.9034 121.753 56.3524 118.92 54.0585C111.601 48.1341 104.328 43.7765 97.5382 41.5886C90.7485 39.4009 83.9666 39.2526 78.25 42.5398C72.5334 45.827 69.2714 51.7508 67.7788 58.701C66.286 65.6519 66.439 74.1033 67.931 83.3783C68.5087 86.9695 69.2928 90.7188 70.2773 94.5954C66.4143 95.6846 62.7621 96.8829 59.3506 98.1802C50.5398 101.531 43.1146 105.625 37.817 110.388C32.5199 115.15 29 120.926 29 127.5C29 134.074 32.5199 139.85 37.817 144.612C43.1146 149.375 50.5398 153.469 59.3506 156.82C62.7621 158.117 66.4143 159.315 70.2773 160.405C69.2928 164.281 68.5087 168.03 67.931 171.622C66.439 180.897 66.286 189.348 67.7788 196.299C69.2714 203.249 72.5334 209.173 78.25 212.46C83.9666 215.747 90.7485 215.599 97.5382 213.411C104.328 211.224 111.601 206.866 118.92 200.941C121.753 198.648 124.621 196.097 127.5 193.309C130.379 196.097 133.247 198.648 136.08 200.941C143.399 206.866 150.671 211.224 157.462 213.411C164.251 215.599 171.033 215.747 176.75 212.46C182.467 209.173 185.729 203.249 187.221 196.299C188.714 189.348 188.561 180.897 187.069 171.622C186.491 168.03 185.707 164.281 184.723 160.405C188.586 159.315 192.238 158.117 195.649 156.82C204.46 153.469 211.885 149.375 217.183 144.612C222.48 139.85 226 134.074 226 127.5C226 120.926 222.48 115.15 217.183 110.388C211.885 105.625 204.46 101.531 195.649 98.1802C192.238 96.8829 188.586 95.6846 184.723 94.5954ZM174.078 100.716C168.546 99.4853 162.628 98.4642 156.402 97.6863C158.433 100.849 160.424 104.107 162.363 107.453C164.302 110.798 166.14 114.144 167.875 117.478C170.311 111.719 172.383 106.103 174.078 100.716ZM172.798 127.5C176.718 119.017 179.933 110.708 182.396 102.805C186.02 103.827 189.429 104.946 192.594 106.15C200.833 109.283 207.206 112.91 211.444 116.72C215.682 120.53 217.435 124.18 217.435 127.5C217.435 130.82 215.682 134.47 211.444 138.28C207.206 142.09 200.833 145.717 192.594 148.85C189.429 150.054 186.02 151.173 182.396 152.195C179.933 144.292 176.718 135.983 172.798 127.5ZM167.875 137.522C166.14 140.856 164.302 144.202 162.363 147.547C160.424 150.893 158.433 154.151 156.402 157.314C162.628 156.536 168.546 155.515 174.078 154.284C172.383 148.897 170.311 143.281 167.875 137.522ZM176.421 162.503C168.317 164.33 159.485 165.711 150.149 166.571C144.733 174.194 139.116 181.122 133.476 187.198C136.176 189.812 138.853 192.193 141.483 194.321C148.326 199.861 154.666 203.545 160.098 205.295C165.531 207.045 169.581 206.732 172.467 205.072C175.354 203.413 177.651 200.076 178.845 194.515C180.04 188.954 180.007 181.644 178.612 172.971C178.076 169.639 177.344 166.139 176.421 162.503ZM127.5 181.068C131.336 176.911 135.183 172.317 138.973 167.336C135.207 167.507 131.378 167.595 127.5 167.595C123.622 167.595 119.793 167.507 116.027 167.336C119.817 172.317 123.664 176.911 127.5 181.068ZM98.598 157.314C96.5666 154.151 94.576 150.893 92.6368 147.547C90.6976 144.202 88.8595 140.856 87.1252 137.522C84.6887 143.281 82.6174 148.897 80.9216 154.284C86.4537 155.515 92.3721 156.536 98.598 157.314ZM78.5793 162.503C86.6826 164.33 95.5146 165.711 104.851 166.571C110.267 174.194 115.884 181.122 121.524 187.198C118.824 189.812 116.147 192.193 113.517 194.321C106.674 199.861 100.334 203.545 94.9018 205.295C89.4693 207.045 85.4191 206.732 82.5326 205.072C79.6462 203.413 77.3488 200.076 76.1545 194.515C74.9604 188.954 74.9932 181.644 76.3884 172.971C76.9244 169.639 77.656 166.139 78.5793 162.503ZM72.6037 152.195C68.98 151.173 65.5714 150.054 62.4059 148.85C54.1667 145.717 47.7941 142.09 43.5564 138.28C39.3181 134.47 37.5652 130.82 37.5652 127.5C37.5652 124.18 39.3181 120.53 43.5564 116.72C47.7941 112.91 54.1667 109.283 62.4059 106.15C65.5714 104.946 68.98 103.827 72.6037 102.805C75.0669 110.708 78.2817 119.017 82.2024 127.5C78.2817 135.983 75.0669 144.292 72.6037 152.195Z" fill="#61DAFB"/>
</svg>

<svg width="256" height="256" viewBox="0 0 256 256" fill="none" xmlns="http://www.w3.org/2000/svg">
  <path d="M127.5 144.988c9.697 0 17.559-7.83 17.559-17.488s-7.862-17.488-17.559-17.488c-9.697 0-17.559 7.83-17.559 17.488s7.862 17.488 17.559 17.488Z" fill="#61DAFB"/>
  <path fill-rule="evenodd" clip-rule="evenodd" d="M109.585 96.595a239.008 239.008 0 0 0-9.53 15.123A238.676 238.676 0 0 0 91.67 127.5a238.676 238.676 0 0 0 8.385 15.782 238.946 238.946 0 0 0 9.53 15.123c5.785.432 11.775.659 17.915.659 6.14 0 12.13-.227 17.915-.659a238.946 238.946 0 0 0 9.53-15.123 238.196 238.196 0 0 0 8.385-15.782 238.196 238.196 0 0 0-8.385-15.782 239.008 239.008 0 0 0-9.53-15.123 241.23 241.23 0 0 0-17.915-.659c-6.14 0-12.13.227-17.915.659Zm-10.987 1.091a250.552 250.552 0 0 0-5.961 9.767 250.38 250.38 0 0 0-5.512 10.025c-2.436-5.759-4.508-11.375-6.203-16.762 5.532-1.23 11.45-2.252 17.676-3.03Zm17.429-10.022c3.766-.17 7.595-.258 11.473-.258 3.878 0 7.707.087 11.473.258-3.79-4.981-7.637-9.575-11.473-13.732-3.836 4.157-7.683 8.75-11.473 13.732Zm5.497-19.862c-5.64 6.076-11.257 13.004-16.673 20.627-9.336.86-18.168 2.241-26.272 4.068a120.332 120.332 0 0 1-2.19-10.468c-1.396-8.673-1.429-15.983-.234-21.544 1.194-5.56 3.491-8.898 6.378-10.557 2.886-1.66 6.936-1.973 12.369-.223 5.432 1.75 11.772 5.434 18.615 10.974 2.63 2.128 5.307 4.509 8.007 7.123Zm11.952 0c5.64 6.076 11.257 13.004 16.673 20.627 9.336.86 18.168 2.241 26.272 4.068a120.445 120.445 0 0 0 2.191-10.468c1.395-8.673 1.428-15.983.233-21.544-1.194-5.56-3.491-8.898-6.378-10.557-2.886-1.66-6.936-1.973-12.369-.223-5.432 1.75-11.772 5.434-18.615 10.974a120.892 120.892 0 0 0-8.007 7.123Zm51.247 26.793a129.132 129.132 0 0 0 2.346-11.217c1.492-9.275 1.645-17.726.152-24.677-1.492-6.95-4.754-12.874-10.471-16.161-5.717-3.287-12.499-3.14-19.288-.951-6.791 2.188-14.063 6.545-21.382 12.47a129.98 129.98 0 0 0-8.58 7.632 129.98 129.98 0 0 0-8.58-7.633c-7.319-5.924-14.592-10.282-21.382-12.47-6.79-2.187-13.571-2.335-19.288.952-5.717 3.287-8.979 9.21-10.471 16.161-1.493 6.95-1.34 15.402.152 24.677a128.84 128.84 0 0 0 2.346 11.217 130.224 130.224 0 0 0-10.926 3.585c-8.811 3.351-16.236 7.445-21.534 12.208C32.52 115.15 29 120.926 29 127.5c0 6.574 3.52 12.35 8.817 17.112 5.298 4.763 12.723 8.857 21.534 12.208a130.626 130.626 0 0 0 10.926 3.585 128.73 128.73 0 0 0-2.346 11.217c-1.492 9.275-1.645 17.726-.152 24.677 1.492 6.95 4.754 12.874 10.471 16.161 5.717 3.287 12.499 3.139 19.288.951 6.79-2.187 14.063-6.545 21.382-12.47a129.543 129.543 0 0 0 8.58-7.632 129.543 129.543 0 0 0 8.58 7.632c7.319 5.925 14.591 10.283 21.382 12.47 6.789 2.188 13.571 2.336 19.288-.951 5.717-3.287 8.979-9.211 10.471-16.161 1.493-6.951 1.34-15.402-.152-24.677a129.022 129.022 0 0 0-2.346-11.217 130.548 130.548 0 0 0 10.926-3.585c8.811-3.351 16.236-7.445 21.534-12.208C222.48 139.85 226 134.074 226 127.5c0-6.574-3.52-12.35-8.817-17.112-5.298-4.763-12.723-8.857-21.534-12.208a130.146 130.146 0 0 0-10.926-3.585Zm-10.645 6.121c-5.532-1.23-11.45-2.252-17.676-3.03a251.532 251.532 0 0 1 11.473 19.792c2.436-5.759 4.508-11.375 6.203-16.762Zm-1.28 26.784c3.92-8.483 7.135-16.792 9.598-24.695a121.484 121.484 0 0 1 10.198 3.345c8.239 3.133 14.612 6.76 18.85 10.57 4.238 3.81 5.991 7.46 5.991 10.78 0 3.32-1.753 6.97-5.991 10.78-4.238 3.81-10.611 7.437-18.85 10.57a121.484 121.484 0 0 1-10.198 3.345c-2.463-7.903-5.678-16.212-9.598-24.695Zm-4.923 10.022a251.532 251.532 0 0 1-5.512 10.025 251.034 251.034 0 0 1-5.961 9.767c6.226-.778 12.144-1.799 17.676-3.03-1.695-5.387-3.767-11.003-6.203-16.762Zm8.546 24.981c-8.104 1.827-16.936 3.208-26.272 4.068-5.416 7.623-11.033 14.551-16.673 20.627a120.9 120.9 0 0 0 8.007 7.123c6.843 5.54 13.183 9.224 18.615 10.974 5.433 1.75 9.483 1.437 12.369-.223 2.887-1.659 5.184-4.996 6.378-10.557 1.195-5.561 1.162-12.871-.233-21.544a120.433 120.433 0 0 0-2.191-10.468ZM127.5 181.068c3.836-4.157 7.683-8.751 11.473-13.732a253.063 253.063 0 0 1-22.946 0c3.79 4.981 7.637 9.575 11.473 13.732Zm-28.902-23.754a250.79 250.79 0 0 1-5.961-9.767 250.38 250.38 0 0 1-5.512-10.025c-2.436 5.759-4.508 11.375-6.203 16.762 5.532 1.231 11.45 2.252 17.676 3.03Zm-20.019 5.189c8.104 1.827 16.936 3.208 26.272 4.068 5.416 7.623 11.033 14.551 16.673 20.627a120.9 120.9 0 0 1-8.007 7.123c-6.843 5.54-13.183 9.224-18.615 10.974-5.433 1.75-9.483 1.437-12.37-.223-2.886-1.659-5.183-4.996-6.377-10.557-1.195-5.561-1.162-12.871.233-21.544a120.32 120.32 0 0 1 2.191-10.468Zm-5.975-10.308a121.575 121.575 0 0 1-10.198-3.345c-8.24-3.133-14.612-6.76-18.85-10.57-4.238-3.81-5.99-7.46-5.99-10.78 0-3.32 1.752-6.97 5.99-10.78 4.238-3.81 10.61-7.437 18.85-10.57a121.575 121.575 0 0 1 10.198-3.345c2.463 7.903 5.678 16.212 9.598 24.695-3.92 8.483-7.135 16.792-9.598 24.695Z" fill="#61DAFB"/>
</svg>
